content/fr/images/chapitre5/table.svg

<svg height="1000" width="928.6" xmlns="http://www.w3.org/2000/svg"><path d="m285.7 767.9v-107.2c0-10-7.8-17.8-17.8-17.8h-178.6c-10.1 0-17.9 7.8-17.9 17.8v107.2c0 10 7.8 17.8 17.9 17.8h178.6c10 0 17.8-7.8 17.8-17.8z m0-214.3v-107.2c0-10-7.8-17.8-17.8-17.8h-178.6c-10.1 0-17.9 7.8-17.9 17.8v107.2c0 10 7.8 17.8 17.9 17.8h178.6c10 0 17.8-7.8 17.8-17.8z m285.7 214.3v-107.2c0-10-7.8-17.8-17.8-17.8h-178.6c-10 0-17.9 7.8-17.9 17.8v107.2c0 10 7.9 17.8 17.9 17.8h178.6c10 0 17.8-7.8 17.8-17.8z m-285.7-428.6v-107.2c0-10-7.8-17.8-17.8-17.8h-178.6c-10.1 0-17.9 7.8-17.9 17.8v107.2c0 10 7.8 17.8 17.9 17.8h178.6c10 0 17.8-7.8 17.8-17.8z m285.7 214.3v-107.2c0-10-7.8-17.8-17.8-17.8h-178.6c-10 0-17.9 7.8-17.9 17.8v107.2c0 10 7.9 17.8 17.9 17.8h178.6c10 0 17.8-7.8 17.8-17.8z m285.7 214.3v-107.2c0-10-7.8-17.8-17.8-17.8h-178.6c-10 0-17.8 7.8-17.8 17.8v107.2c0 10 7.8 17.8 17.8 17.8h178.6c10 0 17.8-7.8 17.8-17.8z m-285.7-428.6v-107.2c0-10-7.8-17.8-17.8-17.8h-178.6c-10 0-17.9 7.8-17.9 17.8v107.2c0 10 7.9 17.8 17.9 17.8h178.6c10 0 17.8-7.8 17.8-17.8z m285.7 214.3v-107.2c0-10-7.8-17.8-17.8-17.8h-178.6c-10 0-17.8 7.8-17.8 17.8v107.2c0 10 7.8 17.8 17.8 17.8h178.6c10 0 17.8-7.8 17.8-17.8z m0-214.3v-107.2c0-10-7.8-17.8-17.8-17.8h-178.6c-10 0-17.8 7.8-17.8 17.8v107.2c0 10 7.8 17.8 17.8 17.8h178.6c10 0 17.8-7.8 17.8-17.8z m71.5-178.6v607.2c0 49.1-40.2 89.2-89.3 89.2h-750c-49.1 0-89.3-40.1-89.3-89.2v-607.2c0-49.1 40.2-89.3 89.3-89.3h750c49.1 0 89.3 40.2 89.3 89.3z" /></svg>

<?xml version="1.0" encoding="utf-8"?>
<!-- Generator: Adobe Illustrator 24.3.0, SVG Export Plug-In . SVG Version: 6.00 Build 0)  -->
<svg version="1.1" id="Calque_1" xmlns="http://www.w3.org/2000/svg" xmlns:xlink="http://www.w3.org/1999/xlink" x="0px" y="0px"
	 viewBox="0 0 928.6 1000" style="enable-background:new 0 0 928.6 1000;" xml:space="preserve">
<style type="text/css">
	.st0{fill:#333333;}
</style>
<path class="st0" d="M285.7,767.9V660.7c0-10-7.8-17.8-17.8-17.8H89.3c-10.1,0-17.9,7.8-17.9,17.8v107.2c0,10,7.8,17.8,17.9,17.8
	h178.6C277.9,785.7,285.7,777.9,285.7,767.9z M285.7,553.6V446.4c0-10-7.8-17.8-17.8-17.8H89.3c-10.1,0-17.9,7.8-17.9,17.8v107.2
	c0,10,7.8,17.8,17.9,17.8h178.6C277.9,571.4,285.7,563.6,285.7,553.6z M571.4,767.9V660.7c0-10-7.8-17.8-17.8-17.8H375
	c-10,0-17.9,7.8-17.9,17.8v107.2c0,10,7.9,17.8,17.9,17.8h178.6C563.6,785.7,571.4,777.9,571.4,767.9z M285.7,339.3V232.1
	c0-10-7.8-17.8-17.8-17.8H89.3c-10.1,0-17.9,7.8-17.9,17.8v107.2c0,10,7.8,17.8,17.9,17.8h178.6
	C277.9,357.1,285.7,349.3,285.7,339.3z M571.4,553.6V446.4c0-10-7.8-17.8-17.8-17.8H375c-10,0-17.9,7.8-17.9,17.8v107.2
	c0,10,7.9,17.8,17.9,17.8h178.6C563.6,571.4,571.4,563.6,571.4,553.6z M857.1,767.9V660.7c0-10-7.8-17.8-17.8-17.8H660.7
	c-10,0-17.8,7.8-17.8,17.8v107.2c0,10,7.8,17.8,17.8,17.8h178.6C849.3,785.7,857.1,777.9,857.1,767.9z M571.4,339.3V232.1
	c0-10-7.8-17.8-17.8-17.8H375c-10,0-17.9,7.8-17.9,17.8v107.2c0,10,7.9,17.8,17.9,17.8h178.6C563.6,357.1,571.4,349.3,571.4,339.3z
	 M857.1,553.6V446.4c0-10-7.8-17.8-17.8-17.8H660.7c-10,0-17.8,7.8-17.8,17.8v107.2c0,10,7.8,17.8,17.8,17.8h178.6
	C849.3,571.4,857.1,563.6,857.1,553.6z M857.1,339.3V232.1c0-10-7.8-17.8-17.8-17.8H660.7c-10,0-17.8,7.8-17.8,17.8v107.2
	c0,10,7.8,17.8,17.8,17.8h178.6C849.3,357.1,857.1,349.3,857.1,339.3z M928.6,160.7v607.2c0,49.1-40.2,89.2-89.3,89.2h-750
	C40.2,857.1,0,817,0,767.9V160.7c0-49.1,40.2-89.3,89.3-89.3h750C888.4,71.4,928.6,111.6,928.6,160.7L928.6,160.7z"/>
</svg>
